Yaru++/mimetypes/16/text.svg

<svg id="svg15" height="16" width="16" xmlns="http://www.w3.org/2000/svg">
  <path id="path11" d="m4.9941406 0c-1.2582.0145-2.1788906-.03060438-2.9316406.38476562-.37637.20766001-.6732306.55938688-.8378906.99804688-.16467.43867-.2246094.9595775-.2246094 1.6171875v10c0 .65761.0598994 1.178578.2246094 1.617188.16468.43861.4615306.788523.8378906.996093.75272.41514 1.6735406.371649 2.9316406.386719h.0019532 5.0058592.003906c1.25819-.0145 2.178891.030604 2.931641-.384766.37637-.20766.673231-.559387.837891-.998046.16453-.438671.224609-.959578.224609-1.617188v-10c0-.65761-.059899-1.1785775-.224609-1.6171875-.16468-.43861-.461531-.78852375-.837891-.99609375-.75272-.41513-1.673551-.37164875-2.931641-.38671875h-.001953-5.0058591zm.0058594 1h5c1.25862.0152 2.089098.0598988 2.455078.2617188.18342.1011599.287226.2128562.384766.4726562.09741.25979.160156.673235.160156 1.265625v10c0 .59239-.062596 1.005725-.160156 1.265625-.0976.25991-.201356.371466-.384766.472656-.36596.20192-1.196558.247009-2.455078.261719h-4.9941406-.0058594c-1.25863-.0152-2.0890981-.059899-2.4550781-.261719-.18342-.10116-.2872257-.212856-.3847657-.472656-.09755-.25979-.1601562-.673235-.1601562-1.265625v-10c0-.59239.0625962-1.005725.1601562-1.265625.0976001-.25991.2033088-.3714662.3867188-.4726562.36595-.20191 1.194605-.2470188 2.453125-.2617188zm-1.5 2.6191406v1h8v-1zm0 2v1h8v-1zm0 2v1h8v-1zm0 2v1.0000004h3v-1.0000004z" fill="#808080"/>
</svg>

<?xml version="1.0" encoding="UTF-8" standalone="no"?>
<svg
   xmlns:osb="http://www.openswatchbook.org/uri/2009/osb"
   xmlns:dc="http://purl.org/dc/elements/1.1/"
   xmlns:cc="http://creativecommons.org/ns#"
   xmlns:rdf="http://www.w3.org/1999/02/22-rdf-syntax-ns#"
   xmlns:svg="http://www.w3.org/2000/svg"
   xmlns="http://www.w3.org/2000/svg"
   xmlns:sodipodi="http://sodipodi.sourceforge.net/DTD/sodipodi-0.dtd"
   xmlns:inkscape="http://www.inkscape.org/namespaces/inkscape"
   width="16"
   height="16"
   version="1.1"
   id="svg15"
   sodipodi:docname="text.svg"
   inkscape:version="0.92.4 (5da689c313, 2019-01-14)">
  <metadata
     id="metadata19">
    <rdf:RDF>
      <cc:Work
         rdf:about="">
        <dc:format>image/svg+xml</dc:format>
        <dc:type
           rdf:resource="http://purl.org/dc/dcmitype/StillImage" />
        <dc:title></dc:title>
      </cc:Work>
    </rdf:RDF>
  </metadata>
  <sodipodi:namedview
     pagecolor="#ffffff"
     bordercolor="#666666"
     borderopacity="1"
     objecttolerance="10"
     gridtolerance="10"
     guidetolerance="10"
     inkscape:pageopacity="0"
     inkscape:pageshadow="2"
     inkscape:window-width="856"
     inkscape:window-height="480"
     id="namedview17"
     showgrid="false"
     inkscape:zoom="14.75"
     inkscape:cx="8"
     inkscape:cy="8"
     inkscape:window-x="0"
     inkscape:window-y="27"
     inkscape:window-maximized="0"
     inkscape:current-layer="svg15" />
  <defs
     id="defs9">
    <linearGradient
       id="linearGradient5606"
       osb:paint="solid">
      <stop
         id="stop5608"
         offset="0"
         style="stop-color:#000000" />
    </linearGradient>
    <linearGradient
       id="linearGradient4526"
       osb:paint="solid">
      <stop
         id="stop4528"
         offset="0"
         style="stop-color:#ffffff" />
    </linearGradient>
    <linearGradient
       id="linearGradient3600-4"
       osb:paint="gradient">
      <stop
         id="stop3602-7"
         offset="0"
         style="stop-color:#f4f4f4" />
      <stop
         id="stop3604-6"
         offset="1"
         style="stop-color:#dbdbdb" />
    </linearGradient>
  </defs>
  <g
     transform="translate(-512.00004,-160)"
     id="g13">
    <path
       style="fill:#808080"
       d="M 4.9941406 0 C 3.7359406 0.0145 2.81525 -0.030604375 2.0625 0.38476562 C 1.68613 0.59242563 1.3892694 0.9441525 1.2246094 1.3828125 C 1.0599394 1.8214825 1 2.34239 1 3 L 1 13 C 1 13.65761 1.0598994 14.178578 1.2246094 14.617188 C 1.3892894 15.055798 1.68614 15.405711 2.0625 15.613281 C 2.81522 16.028421 3.7360406 15.98493 4.9941406 16 L 4.9960938 16 L 10.001953 16 L 10.005859 16 C 11.264049 15.9855 12.18475 16.030604 12.9375 15.615234 C 13.31387 15.407574 13.610731 15.055847 13.775391 14.617188 C 13.939921 14.178517 14 13.65761 14 13 L 14 3 C 14 2.34239 13.940101 1.8214225 13.775391 1.3828125 C 13.610711 0.9442025 13.31386 0.59428875 12.9375 0.38671875 C 12.18478 -0.02841125 11.263949 0.01507 10.005859 0 L 10.003906 0 L 4.9980469 0 L 4.9941406 0 z M 5 1 L 10 1 C 11.25862 1.0152 12.089098 1.0598988 12.455078 1.2617188 C 12.638498 1.3628787 12.742304 1.474575 12.839844 1.734375 C 12.937254 1.994165 13 2.40761 13 3 L 13 13 C 13 13.59239 12.937404 14.005725 12.839844 14.265625 C 12.742244 14.525535 12.638488 14.637091 12.455078 14.738281 C 12.089118 14.940201 11.25852 14.98529 10 15 L 5.0058594 15 L 5 15 C 3.74137 14.9848 2.9109019 14.940101 2.5449219 14.738281 C 2.3615019 14.637121 2.2576962 14.525425 2.1601562 14.265625 C 2.0626062 14.005835 2 13.59239 2 13 L 2 3 C 2 2.40761 2.0625962 1.994275 2.1601562 1.734375 C 2.2577563 1.474465 2.363465 1.3629088 2.546875 1.2617188 C 2.912825 1.0598088 3.74148 1.0147 5 1 z M 3.5 3.6191406 L 3.5 4.6191406 L 11.5 4.6191406 L 11.5 3.6191406 L 3.5 3.6191406 z M 3.5 5.6191406 L 3.5 6.6191406 L 11.5 6.6191406 L 11.5 5.6191406 L 3.5 5.6191406 z M 3.5 7.6191406 L 3.5 8.6191406 L 11.5 8.6191406 L 11.5 7.6191406 L 3.5 7.6191406 z M 3.5 9.6191406 L 3.5 10.619141 L 6.5 10.619141 L 6.5 9.6191406 L 3.5 9.6191406 z"
       transform="translate(512.00004,160)"
       id="path11" />
  </g>
</svg>
